Assets/img/linkedin.svg

<svg viewBox="0 0 512 512" xmlns="http://www.w3.org/2000/svg"><path d="m437 0h-362c-41.398438 0-75 34.601562-75 76v361c0 41.398438 33.601562 75 75 75h362c41.398438 0 75-33.601562 75-75v-361c0-41.398438-33.601562-76-75-76zm0 0" fill="#25d9f8"/><path d="m512 76v361c0 41.398438-33.601562 75-75 75h-181v-512h181c41.398438 0 75 34.601562 75 76zm0 0" fill="#00c0f1"/><g fill="#ececf1"><path d="m121 196h60v211h-60zm0 0"/><path d="m121 106h60v60h-60zm0 0"/><path d="m391 275.800781v131.199219h-60v-121c0-16.5-13.5-30-30-30s-30 13.5-30 30v121h-60v-211h60v11.398438c15.601562-5.097657 25.800781-11.398438 45-11.398438 40.800781 0 75 36.597656 75 79.800781zm0 0"/></g><path d="m391 275.800781v131.199219h-60v-121c0-16.5-13.5-30-30-30s-30 13.5-30 30v121h-15v-211h15v11.398438c15.601562-5.097657 25.800781-11.398438 45-11.398438 40.800781 0 75 36.597656 75 79.800781zm0 0" fill="#e2e2e7"/></svg>

<?xml version="1.0" encoding="utf-8"?>
<!-- Generator: Adobe Illustrator 23.0.6, SVG Export Plug-In . SVG Version: 6.00 Build 0)  -->
<svg version="1.1" id="Layer_1" xmlns="http://www.w3.org/2000/svg" xmlns:xlink="http://www.w3.org/1999/xlink" x="0px" y="0px"
	 viewBox="0 0 512 512" style="enable-background:new 0 0 512 512;" xml:space="preserve">
<style type="text/css">
	.st0{fill:#293939;}
	.st1{fill:#384949;}
	.st2{fill:#ECECF1;}
	.st3{fill:#E2E2E7;}
</style>
<path class="st0" d="M437,0H75C33.6,0,0,34.6,0,76v361c0,41.4,33.6,75,75,75h362c41.4,0,75-33.6,75-75V76C512,34.6,478.4,0,437,0z"
	/>
<path class="st1" d="M512,76v361c0,41.4-33.6,75-75,75H256V0h181C478.4,0,512,34.6,512,76z"/>
<g>
	<path class="st2" d="M121,196h60v211h-60V196z"/>
	<path class="st2" d="M121,106h60v60h-60V106z"/>
	<path class="st2" d="M391,275.8V407h-60V286c0-16.5-13.5-30-30-30s-30,13.5-30,30v121h-60V196h60v11.4c15.6-5.1,25.8-11.4,45-11.4
		C356.8,196,391,232.6,391,275.8z"/>
</g>
<path class="st3" d="M391,275.8V407h-60V286c0-16.5-13.5-30-30-30s-30,13.5-30,30v121h-15V196h15v11.4c15.6-5.1,25.8-11.4,45-11.4
	C356.8,196,391,232.6,391,275.8z"/>
</svg>
